air-purifier.svg

<svg fill="currentColor" viewBox="0 0 24 24"><path d="M11 9a4 4 0 0 1 4 4 4 4 0 0 1-4 4 4 4 0 0 1-4-4 4 4 0 0 1 4-4m0 2a2 2 0 0 0-2 2 2 2 0 0 0 2 2 2 2 0 0 0 2-2 2 2 0 0 0-2-2M7 4h7a4 4 0 0 1 4 4v1h-2V8a2 2 0 0 0-2-2H7a2 2 0 0 0-2 2v12h11v-2h2v4H3V8a4 4 0 0 1 4-4m9 7c2.5 0 2.5-2 5-2v2c-2.5 0-2.5 2-5 2zm0 4c2.5 0 2.5-2 5-2v2c-2.5 0-2.5 2-5 2z"/></svg>

<svg  viewBox="0 0 24 24" fill="currentColor"><path  d="M11,9A4,4 0 0,1 15,13A4,4 0 0,1 11,17A4,4 0 0,1 7,13A4,4 0 0,1 11,9M11,11A2,2 0 0,0 9,13A2,2 0 0,0 11,15A2,2 0 0,0 13,13A2,2 0 0,0 11,11M7,4H14A4,4 0 0,1 18,8V9H16V8A2,2 0 0,0 14,6H7A2,2 0 0,0 5,8V20H16V18H18V22H3V8A4,4 0 0,1 7,4M16,11C18.5,11 18.5,9 21,9V11C18.5,11 18.5,13 16,13V11M16,15C18.5,15 18.5,13 21,13V15C18.5,15 18.5,17 16,17V15Z"/></svg>
